!!!COM: Bach, Johann Sebastian
!!!OTA: Das wohltemperirte Clavier
!!!OPR: Das wohltemperierte Klavier
!!!OTL: Fuga 16, Vol. 2
!!!XEN: The Well-Tempered Clavier, Volume 2, Fugue 16.
!!!ONB: G minor, 4-part
!!!SCT: BWV 885b
!!!YEC: Copyright 1994, David Huron
!!!YEM: Rights to all derivative electronic formats reserved.
**kern	**kern	**kern	**kern
*staff2	*staff2	*staff1	*staff1
*clefF4	*clefF4	*clefG2	*clefG2
*k[b-e-]	*k[b-e-]	*k[b-e-]	*k[b-e-]
*M3/4	*M3/4	*M3/4	*M3/4
*g:	*g:	*g:	*g:
*MM84	*MM84	*MM84	*MM84
=1	=1	=1	=1
2.r	4r	2.r	2.r
.	4d	.	.
.	8r	.	.
.	8B-	.	.
=2	=2	=2	=2
2.r	4e-	2.r	2.r
.	4c	.	.
.	8r	.	.
.	8A	.	.
=3	=3	=3	=3
2.r	4d	2.r	2.r
.	4B-	.	.
.	8r	.	.
.	8G	.	.
=4	=4	=4	=4
2.r	8c	2.r	2.r
.	8c	.	.
.	8c	.	.
.	8c	.	.
.	8c	.	.
.	8c	.	.
=5	=5	=5	=5
2.r	8c	4r	2.r
.	16B-	.	.
.	16A	.	.
.	16B-	4g	.
.	16G	.	.
.	16B-	.	.
.	16c	.	.
.	16d	8r	.
.	16c#	.	.
.	8d	8f	.
=6	=6	=6	=6
2.r	8d	4b-	2.r
.	8G	.	.
.	16r	4g	.
.	16G	.	.
.	16A	.	.
.	16B-	.	.
.	16c	8r	.
.	16B-	.	.
.	8c	8en	.
=7	=7	=7	=7
2.r	8c	4a	2.r
.	8F	.	.
.	16r	4f	.
.	16F	.	.
.	16G	.	.
.	16A	.	.
.	16B-	8r	.
.	16A	.	.
.	[8B-	8d	.
=8	=8	=8	=8
2.r	16B-]	8g	2.r
.	16A	.	.
.	16B-	8g	.
.	16A	.	.
.	16G	8g	.
.	16F	.	.
.	16G	8g	.
.	16F	.	.
.	16En	8g	.
.	16D	.	.
.	16E	8g	.
.	16D	.	.
=9	=9	=9	=9
2.r	8C#	8g	4r
.	8A	16f	.
.	.	16en	.
.	8D	16f	4dd
.	.	16d	.
.	8cn	16e	.
.	.	16f#	.
.	8B-	16g	8r
.	.	16f#	.
.	8G	8g	8b-
=10	=10	=10	=10
2.r	16c	8g	4ee-
.	16B-	.	.
.	16c	8c	.
.	16B-	.	.
.	8.A	16r	4cc
.	.	16c	.
.	.	16d	.
.	16G	16e-	.
.	8A	16f	8r
.	.	16e-	.
.	8F	8f	8a
=11	=11	=11	=11
2.r	16B-	8f	4dd
.	16A	.	.
.	16B-	8B-	.
.	16A	.	.
.	8.G	16r	4b-
.	.	16B-	.
.	.	16c	.
.	16F	16d	.
.	8G	16e-	8r
.	.	16d	.
.	8E-	[8e-	8g
=12	=12	=12	=12
2.r	4A	16e-]	8cc
.	.	16d	.
.	.	16e-	8cc
.	.	16d	.
.	8r	16c	8cc
.	.	16B-	.
.	8G	16c	8cc
.	.	16B-	.
.	8F#	16A	8cc
.	.	16G	.
.	8En	16A	8cc
.	.	16G	.
=13	=13	=13	=13
4r	8D	8F#	8cc
.	8F#	4d	16b-
.	.	.	16a
4G	8G	.	16b-
.	.	.	16g
.	16d	8g	16b-
.	16en	.	16cc
8r	16f	8r	16dd
.	16e	.	16cc#
8Fn	8f	16r	8dd
.	.	[16a	.
=14	=14	=14	=14
4B-	[4d	16a]	8dd
.	.	16a	.
.	.	16g	8g
.	.	16f	.
4G	8d]	4en	16r
.	.	.	16g
.	16c	.	16a
.	16B-	.	16b-
8r	8A	8r	16cc
.	.	.	16b-
8En	8G	16r	8cc
.	.	[16g	.
=15	=15	=15	=15
4A	[4c	16g]	8cc
.	.	16g	.
.	.	16f	8f
.	.	16en	.
4F	8c]	4d	16r
.	.	.	16f
.	16B-	.	16g
.	16A	.	16a
8r	8G	8r	16b-
.	.	.	16a
8D	8F	16r	[8b-
.	.	16f	.
=16	=16	=16	=16
8G	4B-	8.en	16b-]
.	.	.	16a
8G	.	.	16b-
.	.	16f	16a
8G	4r	8.e	16g
.	.	.	16f
8G	.	.	16g
.	.	16d	16f
8G	4r	8.c#	16en
.	.	.	16d
8G	.	.	16e
.	.	16d	16d
=17	=17	=17	=17
8G	2.r	4A	8c#
16F	.	.	8a
16En	.	.	.
16F	.	4r	8d
16D	.	.	.
16E-	.	.	8ccn
16F	.	.	.
16G	.	8r	16bn
16F	.	.	16dd
8G	.	16r	8ff
.	.	[16dd	.
=18	=18	=18	=18
16C	2.r	8dd]	4ee-
16BBn	.	.	.
16C	.	8g	.
16D	.	.	.
16E-	.	8c	4r
16C	.	.	.
16D	.	8b-	.
16E-	.	.	.
16F	.	16a	8r
16E-	.	16cc	.
8F	.	[8ee-	16r
.	.	.	16aa
=19	=19	=19	=19
16BB-	2.r	8ee-]	8.bb-
16F	.	.	.
16G	.	8dd	.
16A	.	.	16aa
16B-	.	4r	16gg
16A	.	.	16ff#
8B-	.	.	16gg
.	.	.	16ff#
16r	.	8r	[4gg
16En	.	.	.
16F#	.	16r	.
16G	.	16dd	.
=20	=20	=20	=20
16A	4r	16cc	4gg]
16G	.	16b-	.
8A	.	16cc	.
.	.	16b-	.
16r	4d	8.cc	8.ff#
16D	.	.	.
16En	.	.	.
16F#	.	16cc	16aa
16G	8r	16b-	8.dd
16F#	.	16a	.
8G	8B-	16b-	.
.	.	16a	16cc
=21	=21	=21	=21
8G	4e-	16g	2b-
.	.	16f	.
8C	.	16g	.
.	.	16f	.
16r	4c	8.e-M	.
16C	.	.	.
16D	.	.	.
16E-	.	16d	.
16F	8r	4c	[4a
16E-	.	.	.
8F	8A	.	.
=22	=22	=22	=22
8F	4d	4f	16a]
.	.	.	16a
8BB-	.	.	16b-
.	.	.	16a
16r	4B-	4d	8.g
16BB-	.	.	.
16C	.	.	.
16D	.	.	16f#
16E-	8r	4r	[4g
16D	.	.	.
[8E-	8G	.	.
=23	=23	=23	=23
16E-]	8c	2.r	8.g]
16D	.	.	.
16E-	8c	.	.
16D	.	.	16b-
16C	8c	.	8.a
16BB-	.	.	.
16C	8c	.	.
16BB-	.	.	16cc
16AA	8c	.	8.f#
16GG	.	.	.
16AA	[8c	.	.
16GG	.	.	16a
=24	=24	=24	=24
8FF#	8c]	2.r	8.d
8D	16B-	.	.
.	16A	.	16f#
8GG	16B-	.	8g
.	16G	.	.
8Fn	16A	.	8r
.	16B-	.	.
8En	16c	.	8r
.	16B-	.	.
8C	8c	.	16r
.	.	.	[16b-
=25	=25	=25	=25
8F	8c	2.r	16b-]
.	.	.	16b-
8A	16f	.	16a
.	16en	.	16g
8D	8f	.	16a
.	.	.	16a
8c	8r	.	16bn
.	.	.	16cc
8Bn	8r	.	16dd
.	.	.	16cc
8G	16r	.	8dd
.	[16f	.	.
=26	=26	=26	=26
8c	16f]	2.r	8dd
.	16f	.	.
8G	16e-	.	16cc
.	16d	.	16bn
8C	16e-	.	4cc
.	16c	.	.
8A	16f#	.	.
.	16g	.	.
8F#	16a	.	8r
.	16g	.	.
8D	8a	.	16r
.	.	.	[16cc
=27	=27	=27	=27
8G	8a	2.r	16cc]
.	.	.	16cc
8B-	16g	.	16b-
.	16f#	.	16a
8En	8g	.	16b-
.	.	.	16dd
8d	8r	.	16een
.	.	.	16ffn
8c#	8r	.	16gg
.	.	.	16ff
8A	16r	.	[8gg
.	16c#	.	.
=28	=28	=28	=28
16d	16d	4r	8gg]
16r	16c#	.	.
8r	16d	.	16ff
.	16A	.	16een
4r	8D	4a	16ff
.	.	.	16dd
.	16d	.	16ff
.	16en	.	16gg
4r	8f	8r	16aa
.	.	.	16gg
.	8d	8f	8aa
=29	=29	=29	=29
2.r	16g	4b-	8aa
.	16G	.	.
.	16A	.	8dd
.	16B-	.	.
.	16c	4g	16r
.	16G	.	16dd
.	16c	.	16een
.	16d	.	16ff
.	8en	8r	16gg
.	.	.	16ff
.	8c	8en	8gg
=30	=30	=30	=30
2.r	16f	4a	8gg
.	16F	.	.
.	16G	.	8cc
.	16A	.	.
.	16B-	4f	16r
.	16F	.	16cc
.	16B-	.	16dd
.	16c	.	16een
.	16d	8r	16ff
.	16c	.	16ee
.	16B-	8d	[8ff
.	16A	.	.
=31	=31	=31	=31
2.r	16B-	8g	8.ff]
.	16d	.	.
.	16c#	8g	.
.	16d	.	16ff
.	16G	8g	16een
.	16B-	.	16dd
.	16A	8g	16ee
.	16B-	.	16dd
.	16En	8g	16cc#
.	16en	.	16dd
.	16c#	8g	[8ee
.	16A	.	.
=32	=32	=32	=32
2.r	16d	8g	8ee]
.	16D	.	.
.	16F	8f	8dd
.	16A	.	.
.	16d	16r	4ff
.	16cn	16a	.
.	16d	16b-	.
.	16c	16cc	.
.	16B-	16dd	8r
.	16d	16cc	.
.	16G	8dd	8dd
.	16B-	.	.
=33	=33	=33	=33
2.r	16E-	8dd	4gg
.	16G	.	.
.	16A	8g	.
.	16B-	.	.
.	16c	16r	4ee-
.	16B-	16g	.
.	16c	16a	.
.	16B-	16b-	.
.	16A	16cc	8r
.	16c	16b-	.
.	16F	8cc	8cc
.	16A	.	.
=34	=34	=34	=34
2.r	16D	8cc	4ff
.	16F	.	.
.	16G	8f	.
.	16A	.	.
.	16B-	16r	4dd
.	16A	16f	.
.	16B-	16g	.
.	16A	16a	.
.	16G	16b-	8r
.	16B-	16a	.
.	16E-	[8b-	8b-
.	16G	.	.
=35	=35	=35	=35
2.r	16C	8.b-]	8ee-
.	16G	.	.
.	16A	.	8ee-
.	16B-	16b-	.
.	16c	16a	8ee-
.	16B-	16g	.
.	16c	16a	8ee-
.	16B-	16g	.
.	16A	[4f	8ee-
.	16F	.	.
.	16G	.	8ee-
.	16A	.	.
=36	=36	=36	=36
4r	16B-	4f]	8ee-
.	16A	.	.
.	16B-	.	16dd
.	16c	.	16ee-
4B-	16d	4r	16ff
.	16c	.	16b-
.	16d	.	16ff
.	16en	.	16gg
8r	16f	8r	16aa
.	16e	.	16gg
8A	[8f	16r	8aa
.	.	16cc	.
=37	=37	=37	=37
4d	4f]	16b-	8aa
.	.	16cc	.
.	.	16b-	8dd
.	.	16a	.
4B-	4d	4g	16r
.	.	.	16dd
.	.	.	16een
.	.	.	16ff
8r	[4en	8r	16gg
.	.	.	16ff
8G	.	16r	8gg
.	.	16b-	.
=38	=38	=38	=38
4c	4e]	16a	8gg
.	.	16b-	.
.	.	16a	8cc
.	.	16g	.
4A	4c	4f	16r
.	.	.	16cc
.	.	.	16dd
.	.	.	16een
8r	[4d	8r	16ff
.	.	.	16ee
8F	.	16r	[8ff
.	.	16a	.
=39	=39	=39	=39
8B-	2d]	2.g	16ff]
.	.	.	16dd
8B-	.	.	16een
.	.	.	16ff
8B-	.	.	16gg
.	.	.	16aa
8B-	.	.	16bb-
.	.	.	16gg
8B-	[4c	.	16ff
.	.	.	16ee
8B-	.	.	16dd
.	.	.	16cc
=40	=40	=40	=40
8B-	4c]	4f	8ff
16A	.	.	8cc
16G	.	.	.
16A	4r	4r	8ff
16F	.	.	.
16A	.	.	16ee-
16Bn	.	.	16dd
16c	4r	16r	8ee-
16B	.	16g	.
[8c	.	16a-	8cc
.	.	16g	.
=41	=41	=41	=41
16c]	2.r	8f	8dd
16c	.	.	.
16Bn	.	8d	8g
16A	.	.	.
16B	.	4r	8gg
16G	.	.	.
16B	.	.	16ff
16c	.	.	16ee-
16d	.	16r	8ff
16c	.	16an	.
[8d	.	16bn	8dd
.	.	16a	.
=42	=42	=42	=42
16d]	2.r	8g	8ee-
16G	.	.	.
16c	.	8e-	8cc
16Bn	.	.	.
16c	.	4r	8aa-
16G	.	.	.
16c	.	.	16gg
16d	.	.	16ff
16e-	.	16r	8gg
16d	.	16bn	.
[8e-	.	16cc	8ee-
.	.	16b-	.
=43	=43	=43	=43
8.e-]	2.r	16a-	[2ff
.	.	16g	.
.	.	[8a-	.
16e-	.	.	.
8.d	.	16a-]	.
.	.	16g	.
.	.	[8a-	.
16c	.	.	.
8.Bn	.	4a-_	16ff]
.	.	.	16ee-
.	.	.	16dd
16d	.	.	16cc
=44	=44	=44	=44
8G	2.r	16a-]	8bn
.	.	16a-	.
8Bn	.	16g	[8dd
.	.	16f	.
8c	.	8.e-	16dd]
.	.	.	16g
8A-	.	.	[8cc
.	.	16e-	.
8F	.	8.d	16cc]
.	.	.	16cc
8G	.	.	8b-
.	.	[16f	.
=45	=45	=45	=45
4C	4r	16f]	4cc
.	.	16f	.
.	.	16e-	.
.	.	16d	.
16r	4c	4e-	16r
16C	.	.	16b-
16D	.	.	16an
16E-	.	.	16g
16F	8r	8r	[4a
16E-	.	.	.
8F	8A	8c	.
=46	=46	=46	=46
8F	4d	4f	16a]
.	.	.	16g
8BB-	.	.	16a
.	.	.	16b-
16r	4B-	4d	[2g
16BB-	.	.	.
16C	.	.	.
16D	.	.	.
16E-	8r	8r	.
16D	.	.	.
8E-	8G	8B-	.
=47	=47	=47	=47
8E-	4c	4e-	16g]
.	.	.	16f
8AA	.	.	16g
.	.	.	16a
16r	4A	4c	[2f
16AA	.	.	.
16BB-	.	.	.
16C	.	.	.
16D	8r	8r	.
16C	.	.	.
[8D	8F	8A	.
=48	=48	=48	=48
16D]	8B-	8d	8.f]
16C	.	.	.
16D	8B-	8d	.
16C	.	.	16a
16BB-	8B-	8d	8.g
16AA	.	.	.
16BB-	8B-	8d	.
16AA	.	.	16f
16GG	8B-	8d	8.b-
16FF	.	.	.
16GG	8B-	8d	.
16FF	.	.	16a
=49	=49	=49	=49
16EEn	8B-	8d	4g
16CC	.	.	.
16DD	16A	8c	.
16EE	16G	.	.
16FF	16A	4r	8f
16CC	16G	.	.
16FF	16A	.	8r
16GG	16Bn	.	.
8AA-	16c	8r	4r
.	16B	.	.
8DD	[8c	16r	.
.	.	16f	.
=50	=50	=50	=50
16GG	8c]	8e-	2.r
16FF#	.	.	.
16GG	16Bn	8d	.
16AAn	16A	.	.
16BBn	16G	4r	.
16AA	16D	.	.
16BB	16G	.	.
16D	16A	.	.
8G	16B	8r	.
.	16c	.	.
8BB	[8d	16r	.
.	.	16g	.
=51	=51	=51	=51
16C	8d]	8f	4r
16c	.	.	.
16G	8c	16e-	.
16E-	.	16f	.
4C	16r	4g	4ee-
.	16G	.	.
.	16A	.	.
.	16Bn	.	.
8r	16c	8r	8r
.	16B	.	.
16r	8c	8e-	8cc
[16A-	.	.	.
=52	=52	=52	=52
16A-]	8c	4a-	4ff
8D	.	.	.
.	8F	.	.
16A-	.	.	.
4B-	16r	4f	4dd
.	16F	.	.
.	16G	.	.
.	16A-	.	.
8r	16B-	8r	8r
.	16A-	.	.
16r	8B-	8d	8b-
[16G	.	.	.
=53	=53	=53	=53
16G]	8B-	4g	4ee-
8C	.	.	.
.	8E-	.	.
16G	.	.	.
4A-	16r	4e-	4cc
.	16E-	.	.
.	16F	.	.
.	16G	.	.
8r	16A-	8r	8r
.	16G	.	.
16r	[8A-	8c	8a-
16F	.	.	.
=54	=54	=54	=54
4BBn	16A-]	8f	8dd
.	16G	.	.
.	16A-	8f	8dd
.	16G	.	.
8r	16F	8f	8dd
.	16E-	.	.
8D	16F	8f	8dd
.	16E-	.	.
8FF	16D	8f	8dd
.	16C	.	.
8AA-	16D	8f	8dd
.	16C	.	.
=55	=55	=55	=55
8GG	8BBn	8f	16dd
.	.	.	16cc
8G	8Bn	8f	16dd
.	.	.	16cc
8G	8B	8f	16bn
.	.	.	16an
8G	8B	8f	16b
.	.	.	16a
8An	8c	16r	[4g
.	.	16f	.
8Bn	[8d	16g	.
.	.	[16f	.
=56	=56	=56	=56
[4E-	8d]	16f]	4g_
.	.	16e-	.
.	8G	16f	.
.	.	16d	.
16E-]	[4c	[4e-	16g]
16E-	.	.	16g
16F	.	.	16a
16G	.	.	16bn
16A-	8c]	8e-]	[4cc
16G	.	.	.
8A-	8f	8a-	.
=57	=57	=57	=57
8A-	2d	4f	8cc]
8D	.	.	16bn
.	.	.	16an
16r	.	16r	4b-
16D	.	16a-	.
16E-	.	16g	.
16F	.	16f	.
16G	4d-	16en	[4b-
16F	.	16f	.
8G	.	16e	.
.	.	16f	.
=58	=58	=58	=58
8G	2c	4en	8b-]
8C	.	.	16an
.	.	.	16g
16r	.	16r	4a
16C	.	16g	.
16D	.	16f	.
16E-	.	16e-	.
16F	4c-	16d	[4a-
16E-	.	16e-	.
8F	.	16d	.
.	.	16e-	.
=59	=59	=59	=59
8F	4B-	4d	8a-]
8BB-	.	.	16g
.	.	.	16f
4B-	4d	16r	16g
.	.	16dd	16ff
.	.	16ee-	16gg
.	.	16ff	16aa-
8r	8r	16gg	16bb-
.	.	16ff	16aa-
8G	8B-	8gg	8bb-
=60	=60	=60	=60
4c	4e-	8gg	8bb-
.	.	8cc	8ee-
4A-	4c	16r	16r
.	.	16cc	16ee-
.	.	16dd	16ff
.	.	16ee-	16gg
8r	8r	16ff	16aa-
.	.	16ee-	16gg
8F	8A-	8ff	8aa-
=61	=61	=61	=61
4B-	4d	8ff	8aa-
.	.	8b-	8dd
4G	4B-	16r	16r
.	.	16b-	16dd
.	.	16cc	16ee-
.	.	16dd	16ff
8r	8r	16ee-	16gg
.	.	16dd	16ff
8E-	8G	[8ee-	[8gg
=62	=62	=62	=62
8A-	8c	16ee-]	8gg]
.	.	16dd-	.
8A-	8c	16ee-	8bb-
.	.	16dd-	.
8A-	8c	16cc	8aa-
.	.	16b-	.
8A-	8c	16cc	8gg
.	.	16b-	.
8A-	8c	16a-	8ff
.	.	16g	.
8A-	8c	16a-	8ee-
.	.	16g	.
=63	=63	=63	=63
8B-	16d	8f	8dd
.	16c	.	.
8A-	16d	8f	8dd
.	16c	.	.
8G	16B-	8g	8ee-
.	16A-	.	.
8F	16B-	8a-	8ff
.	16A-	.	.
8E-	16G	8b-	[4gg
.	16F	.	.
8D	16G	8bn	.
.	16F	.	.
=64	=64	=64	=64
8C	8E-	16cc	16gg]
.	.	16dd	16ff
8c	8e-	16ee-	16gg
.	.	16dd	16ff
8c	8e-	16cc	16ee-
.	.	16b-	16dd
8c	8e-	16cc	16ee-
.	.	16b-	16dd
8c	8e-	16a-	16cc
.	.	16g	16b-
8c	8e-	16a-	16cc
.	.	16g	16b-
=65	=65	=65	=65
8c	16e-	4.f#	4.an
.	16d	.	.
8B-	16e-	.	.
.	16d	.	.
8A	16c	.	.
.	16B-	.	.
8G	16c	8g	8b-
.	16B-	.	.
8F#	16A	[4a	[4cc
.	16G	.	.
8En	16A	.	.
.	16G	.	.
=66	=66	=66	=66
8D	8F#	16a]	4cc]
.	.	16d	.
8F#	8A	16e-	.
.	.	[16d	.
8G	8B-	16d]	[4b-
.	.	16d	.
8D	8F#	16e-	.
.	.	16d	.
4E-	4G	8c	16b-]
.	.	.	16b-
.	.	8c#	16a
.	.	.	16g
=67	=67	=67	=67
8D	8A	8d	8f#
8DD	8r	8r	8r
4r	4d	16r	4r
.	.	16a	.
.	.	16b-	.
.	.	16cc	.
4r	8r	16dd	4r
.	.	16cc	.
.	8B-	8dd	.
=68	=68	=68	=68
2.r	4e-	8dd	2.r
.	.	8g	.
.	4c	16r	.
.	.	16g	.
.	.	16a	.
.	.	16b-	.
.	8r	16cc	.
.	.	16b-	.
.	8A	8cc	.
=69	=69	=69	=69
4r	4d	8cc	4r
.	.	8f#	.
16r	4B-	16r	4dd
16D	.	16f#	.
16En	.	16g	.
16F#	.	16a	.
16G	8r	16b-	8r
16F#	.	16a	.
8G	8G	8b-	8b-
=70	=70	=70	=70
8G	4c	8b-	4ee-
8C	.	8e-	.
16r	4A	16r	4cc
16C	.	16en	.
16D	.	16f	.
16En	.	16g	.
16F	8r	16a	8r
16E	.	16g	.
8F	8F	8a	8a
=71	=71	=71	=71
8F	4B-	8a	4dd
8BB-	.	8d	.
16r	4G	16r	4b-
16BB-	.	16d	.
16C	.	16en	.
16D	.	16f#	.
16E-	8r	16g	8r
16D	.	16f#	.
[8E-	8B-	[8g	8g
=72	=72	=72	=72
16E-]	8A	8g]	8cc
16D	.	.	.
16E-	8G	8b-	8cc
16D	.	.	.
16C	8e-	8a	8cc
16BB-	.	.	.
16C	8e-	8g	8cc
16BB-	.	.	.
16AA	8e-	8f#	8cc
16GG	.	.	.
16AA	8e-	8g	8cc
16GG	.	.	.
=73	=73	=73	=73
4FF#	4d	4a	4cc
8r	8r	8r	8r
8DD	8d	8f#	8dd
4GG	4d	4g	4b-
=74	=74	=74	=74
8r	8r	8r	8r
8C	8e-	8a	8cc
4D	4d	4g	8b-
.	.	.	8a
4DD	4c	4f#	8a
.	.	.	8g
=75	=75	=75	=75
16GG	4B-	4d	4g
16D	.	.	.
16En	.	.	.
16F#	.	.	.
16G	4r	4r	16r
16F#	.	.	16a
8G	.	.	16b-
.	.	.	16cc
[4G	16r	4r	16dd
.	16A	.	16cc
.	16B-	.	16dd
.	16c	.	16ee-
=76	=76	=76	=76
8G]	16d	16r	4a
.	16c#	16en	.
8F	[8d	16f	.
.	.	16g	.
[2F	8d]	16a	16r
.	.	16g	16b-
.	16A	[8a	16cc
.	16Bn	.	16dd
.	16cn	8a]	16ee-
.	16B	.	16dd
.	8c	8a-	16ee-
.	.	.	16ff
=77	=77	=77	=77
16F]	8d	8g	16bn
16BBn	.	.	16g
16C	8r	8r	16an
16D	.	.	16b
16E-	8r	8r	16cc
16D	.	.	16b
8E-	16r	16r	8cc
.	16d	16b-	.
[4E-	16c	16a	8cc
.	16B-	16g	.
.	16c	16a	8cc
.	16B-	16g	.
=78	=78	=78	=78
4E-]	4A	4f#	4cc
8r	8r	8r	8r
8E-	8c	8a	8ff#
4D	4d	4b-	4gg
=79	=79	=79	=79
8r	4r	2.r	16r
.	.	.	16bb-
8C#	.	.	16aa
.	.	.	16gg
4D	16r	.	16ff#
.	16A	.	16een
.	16B-	.	16dd
.	16cn	.	16cc
8r	[4d	.	16b-
.	.	.	16a
8D	.	.	16g
.	.	.	16f#
=80	=80	=80	=80
4E-	16d]	16r	[2.g
.	16G	16Bn	.
.	16A	16c	.
.	16Bn	16d	.
4C	16c	16e-	.
.	16B	16d	.
.	8c	8e-	.
16r	4c	4e-	.
16AA	.	.	.
16BBn	.	.	.
16C	.	.	.
=81	=81	=81	=81
4D	16r	16r	2.g_
.	16A	16c	.
.	16Bn	16d	.
.	16c	16e-	.
4BBn	16d	16f	.
.	16c	16e-	.
.	8d	8f	.
16r	[4d	[4f	.
16GG	.	.	.
16AA	.	.	.
16BBn	.	.	.
=82	=82	=82	=82
8C	8d]	8f]	8g]
8C	8f	8a-	16r
.	.	.	8dd
8C	8e-	8g	.
.	.	.	8cc
8C	8d	8f	.
.	.	.	8b-
8C	8c	8e-	.
.	.	.	8an
8C	8B-	8e-	.
.	.	.	16g
=83	=83	=83	=83
8C	8A	8d	8f#
*	*	*	*strophe
*	*	*	*^
*	*	*	*S/sic	*S/ossia
16BB-	8r	8r	16ccxx	32ccxx
.	.	.	.	32ddxx
16AA	.	.	32ddxx	16ee-xx
.	.	.	32ee-xx	.
*	*	*	*S/fin	*S/fin
*	*	*	*v	*v
*	*	*	*S-
8BB-	8r	8r	8dd
8C	8B-	8e-	4g
8D	16A	4d	.
.	16B-	.	.
8DD	[8c	.	8f#
=84	=84	=84	=84
4GG	8c]	4d	4g
.	8Bn	.	.
4r	4r	4r	4r
4r	4r	4r	4r
==	==	==	==
*-	*-	*-	*-
!!!CDT: 1685/3/-1750/7/28
!!!OCY: Deutschland
!!!PPP: Leipzig
!!!ODT: 1738//-1742//
!!!PDT: 1739//-1742//
!!!AFR: fuga; fugue
!!!AST: polyphony
!!!AMT: simple triple
!!!SCA: Bach-Werke-Verzeichnis
!!!YOR: Bach Gesellschaft
!!!SMS: British Library, various
!!!AIN: cemba; clavi
!!!EEV: 1.0
!!!RDT: 1986 December 8
!!!YER: 1994 August 10
!!!EFL: 40/48
!!!VTS: 3451190680
